X:1
T:Title
%%score { ( 1 3 ) | 2 }
L:1/8
M:6/8
K:Eb
V:1 treble nm="Grand Piano"
V:3 treble 
V:2 bass 
V:1
 z3 z2[Q:1/4=87] B, | E>EE EEE | [EG][EG][DF] E2 F | G>GG GGG | BBA G2 [GB] | %5
 [Ge]>[Ge][Ge] [GB]GG | c>cc F2 G/A/ | B>cB G>[A,DF][A,DF] |[M:5/8] [G,E]-[G,E]- [G,E]3 | %9
[M:1/8] [B,GB]/[B,GB]/ |[M:3/4] [Ge]>[Ae] [EBe][Ece] [EBd][EAc] | [GB]4 z2 | c>B Gc BG | %13
 z2 B, B2 [Ad] | [Ge]>[Ge] [Ge] [GB]2 G/G/ |[M:7/8] c>cc F3 G/A/ |[M:3/4] B>c BG- G/[DF]/[DF] | %17
[M:5/8] E-E- E3 |] %18
V:2
 z3 z2 [E,G,] | [E,G,B,]>[E,G,B,][E,G,B,] [E,G,B,][E,G,B,][E,G,B,] | %2
 [B,,B,][B,,B,][B,,A,] [E,G,]2 [E,A,E] | [E,B,E]>[E,B,E][E,B,E] [E,B,E][E,B,E][E,B,E] | %4
 [G,B,E][G,B,E][F,B,D] [E,B,E]2 [E,B,] | [E,B,]>[E,B,][E,B,] [E,E][E,B,E][E,B,E] | %6
 [A,E]>[A,E][A,E] [A,CE]2 [G,C=E]/[F,CF]/ | [B,G]>[B,EA][B,EG][K:bass] [B,E]>B,,B,, | %8
[M:5/8] E,-E,- E,3 |[M:1/8] E,/E,/ |[M:3/4] [E,B,]>[F,B,] G,A, A,A, | %11
 E,E, E, [E,B,E]2 [E,G,E]/[E,G,E]/ | [E,A,E]>[E,G,E] [E,B,E][E,A,E] [E,G,E][E,B,E] | %13
 B,B, A, [G,B,E]2 [F,B,] | [E,B,]>[E,B,] [E,B,] [E,E]2 [E,B,E]/[E,B,E]/ | %15
[M:7/8][K:treble] [A,E]>[A,E][A,E] [A,CE]3 [G,C=E]/[F,CF]/ | %16
[M:3/4] [B,G]>[B,EA] [B,EG][K:bass][B,E]- [B,E]/[B,,A,]/[B,,A,] |[M:5/8] [E,G,]-[E,G,]- [E,G,]3 |] %18
V:3
 x6 | x6 | x6 | x6 | x6 | x6 | x6 | x6 |[M:5/8] x5 |[M:1/8] x |[M:3/4] x6 | EE E G2 B/B/ | x6 | %13
 [DF]4 z2 | x6 |[M:7/8] x7 |[M:3/4] x6 |[M:5/8] x5 |] %18

